X: 154
T: Polska efter Karl-Johan Krej
O: Ålem, Småland
Z: Transcribed to abc by Jon Magnusson 080411
N: Se [[http://www.smus.se/earkiv/fmk/browselarge.php?lang=sw&katalogid=Sm+4&bildnr=00024|SMUS Sm4]]
S: efter Karl-Johan Krej
R: Polska
M: 3/4
L: 1/16
K: D
A2d2 F2A2 A2d2|dcBA B4c4|ABcd ef ge f2d2|d2f2 edcB AGFE|
A2d2 F2A2 A2d2|dcBA B4c4|ABcd ef ge f2d2|cABc c2d2 d4:|:
DFAF DFAF DFAF|DGBG DGBG DGBG|DFAF DFAF DFAF|DGBG DGBG DGBG|
Acec Acec Acec|d3f edcB AGFE|A2d2 F2A2 A2d2|dcBA B4c4|
ABcd efge f2d2|cABc c2d2 d4:|
(:musicend:)

(:music:)
